X: 11145
T: Dulaman Na Binne Bui
R: strathspey
M: 4/4
K: Amixolydian
g2|:e<d B>A G>A (3Bcd|e<d B>A B2 d>g|e<d B>A G>A B>d|1 (3ege d>B (3ABA A>a:|2 (3ege d>B (3ABA A>g||
|:e<a a>b a>g e>d|e>d B>A B2 d>g|e<a a>b a>g e>a|1 g>e d>B A2 A>g:|2 g>e d>B A2 g2||

